components/Company/logos/logo-mx.svg

<svg height="140" viewBox="0 0 400 140" width="400" xmlns="http://www.w3.org/2000/svg"><g transform="translate(94 21)"><path d="m105.580645 86.6129032 11.516129-14.8064516c.096774-.0967742.096774-.2903226.096774-.3870968l-10.16129-70.06451609c0-.29032258-.290323-.48387097-.580645-.48387097h-13.2580646c-.1935484 0-.3870968.0967742-.483871.29032258l-31.6451613 64.45161288c-.1935484.3870968-.7741935.3870968-.9677419 0l-31.9354839-64.45161288c-.0967742-.19354838-.2903226-.29032258-.4838709-.29032258h-13.3548388c-.2903225 0-.4838709.19354839-.5806451.48387097l-12.77419356 87.96774189c-.0967742.2903226.19354838.5806452.58064516.5806452h15.483871c.2903225 0 .4838709-.1935484.5806451-.483871l7.7419355-56.4193548c.0967742-.5806452.7741936-.6774194 1.0645161-.1935484l28.1612904 56.8064516c.0967742.1935484.2903225.2903226.4838709.2903226h10.9354839c.1935484 0 .3870968-.0967742.483871-.2903226l27.7741935-56.032258c.2903226-.483871.967742-.3870968 1.0645161.1935483l7.5483874 54.6774194c.096774.483871.677419.6774194.967742.2903226z"/><path d="m199.83871.87096774h-19.451613c-.193549 0-.290323.0967742-.483871.19354839l-23.322581 30.58064517c-.193548.2903226-.677419.2903226-.870968 0l-23.419354-30.58064517c-.096775-.09677419-.290323-.19354839-.483871-.19354839h-19.451613c-.483871 0-.67742.58064516-.483871.87096774l33.483871 43.35483872c.193548.1935484.193548.483871 0 .6774193l-33.483871 43.3548388c-.290323.3870967 0 .8709677.483871.8709677h19.451613c.193548 0 .290322-.0967742.483871-.1935484l23.419354-30.5806451c.193549-.2903226.67742-.2903226.870968 0l23.419355 30.5806451c.096774.0967742.290323.1935484.483871.1935484h19.451613c.483871 0 .677419-.5806452.483871-.8709677l-33.483871-43.3548388c-.193549-.1935483-.193549-.4838709 0-.6774193l33.483871-43.35483872c.096774-.38709677-.096774-.87096774-.580645-.87096774z"/><path d="m207.774194 89.9032258c-2.322581 0-4.258065-1.9354839-4.258065-4.2580645 0-2.4193548 1.935484-4.2580645 4.258065-4.2580645 2.419354 0 4.258064 1.9354838 4.258064 4.2580645 0 2.3225806-1.935484 4.2580645-4.258064 4.2580645zm0-7.8387097c-1.935484 0-3.580646 1.5483871-3.580646 3.5806452 0 1.9354839 1.548387 3.5806452 3.580646 3.5806452 2.032258 0 3.580645-1.6451613 3.580645-3.5806452 0-2.0322581-1.645162-3.5806452-3.580645-3.5806452zm1.16129 6-1.258065-1.9354838h-.774193v1.9354838h-.774194v-4.9354838h2.032258c.870968 0 1.645162.5806451 1.645162 1.4516129 0 1.0645161-.967742 1.4516129-1.258065 1.4516129l1.354839 1.9354838h-.967742zm-.870968-4.2580645h-1.258064v1.7419355h1.258064c.387097 0 .870968-.2903226.870968-.8709677 0-.5806452-.387097-.8709678-.870968-.8709678z"/></g></svg>

<?xml version="1.0" encoding="UTF-8"?>
<svg width="400px" height="140px" viewBox="0 0 400 140" version="1.1" xmlns="http://www.w3.org/2000/svg" xmlns:xlink="http://www.w3.org/1999/xlink">
    <title>Artboard</title>
    <g id="Artboard" stroke="none" stroke-width="1" fill="none" fill-rule="evenodd">
        <g id="mx-logo" transform="translate(94.000000, 21.000000)" fill="#000000" fill-rule="nonzero">
            <g id="Group">
                <path d="M105.580645,86.6129032 L117.096774,71.8064516 C117.193548,71.7096774 117.193548,71.516129 117.193548,71.4193548 L107.032258,1.35483871 C107.032258,1.06451613 106.741935,0.870967742 106.451613,0.870967742 L93.1935484,0.870967742 C93,0.870967742 92.8064516,0.967741935 92.7096774,1.16129032 L61.0645161,65.6129032 C60.8709677,66 60.2903226,66 60.0967742,65.6129032 L28.1612903,1.16129032 C28.0645161,0.967741935 27.8709677,0.870967742 27.6774194,0.870967742 L14.3225806,0.870967742 C14.0322581,0.870967742 13.8387097,1.06451613 13.7419355,1.35483871 L0.967741935,89.3225806 C0.870967742,89.6129032 1.16129032,89.9032258 1.5483871,89.9032258 L17.0322581,89.9032258 C17.3225806,89.9032258 17.516129,89.7096774 17.6129032,89.4193548 L25.3548387,33 C25.4516129,32.4193548 26.1290323,32.3225806 26.4193548,32.8064516 L54.5806452,89.6129032 C54.6774194,89.8064516 54.8709677,89.9032258 55.0645161,89.9032258 L66,89.9032258 C66.1935484,89.9032258 66.3870968,89.8064516 66.483871,89.6129032 L94.2580645,33.5806452 C94.5483871,33.0967742 95.2258065,33.1935484 95.3225806,33.7741935 L102.870968,88.4516129 C102.967742,88.9354839 103.548387,89.1290323 103.83871,88.7419355 L105.580645,86.6129032 Z" id="Path"></path>
                <path d="M199.83871,0.870967742 L180.387097,0.870967742 C180.193548,0.870967742 180.096774,0.967741935 179.903226,1.06451613 L156.580645,31.6451613 C156.387097,31.9354839 155.903226,31.9354839 155.709677,31.6451613 L132.290323,1.06451613 C132.193548,0.967741935 132,0.870967742 131.806452,0.870967742 L112.354839,0.870967742 C111.870968,0.870967742 111.677419,1.4516129 111.870968,1.74193548 L145.354839,45.0967742 C145.548387,45.2903226 145.548387,45.5806452 145.354839,45.7741935 L111.870968,89.1290323 C111.580645,89.516129 111.870968,90 112.354839,90 L131.806452,90 C132,90 132.096774,89.9032258 132.290323,89.8064516 L155.709677,59.2258065 C155.903226,58.9354839 156.387097,58.9354839 156.580645,59.2258065 L180,89.8064516 C180.096774,89.9032258 180.290323,90 180.483871,90 L199.935484,90 C200.419355,90 200.612903,89.4193548 200.419355,89.1290323 L166.935484,45.7741935 C166.741935,45.5806452 166.741935,45.2903226 166.935484,45.0967742 L200.419355,1.74193548 C200.516129,1.35483871 200.322581,0.870967742 199.83871,0.870967742 Z" id="Path"></path>
            </g>
            <path d="M207.774194,89.9032258 C205.451613,89.9032258 203.516129,87.9677419 203.516129,85.6451613 C203.516129,83.2258065 205.451613,81.3870968 207.774194,81.3870968 C210.193548,81.3870968 212.032258,83.3225806 212.032258,85.6451613 C212.032258,87.9677419 210.096774,89.9032258 207.774194,89.9032258 Z M207.774194,82.0645161 C205.83871,82.0645161 204.193548,83.6129032 204.193548,85.6451613 C204.193548,87.5806452 205.741935,89.2258065 207.774194,89.2258065 C209.806452,89.2258065 211.354839,87.5806452 211.354839,85.6451613 C211.354839,83.6129032 209.709677,82.0645161 207.774194,82.0645161 Z M208.935484,88.0645161 L207.677419,86.1290323 L206.903226,86.1290323 L206.903226,88.0645161 L206.129032,88.0645161 L206.129032,83.1290323 L208.16129,83.1290323 C209.032258,83.1290323 209.806452,83.7096774 209.806452,84.5806452 C209.806452,85.6451613 208.83871,86.0322581 208.548387,86.0322581 L209.903226,87.9677419 L208.935484,87.9677419 L208.935484,88.0645161 Z M208.064516,83.8064516 L206.806452,83.8064516 L206.806452,85.5483871 L208.064516,85.5483871 C208.451613,85.5483871 208.935484,85.2580645 208.935484,84.6774194 C208.935484,84.0967742 208.548387,83.8064516 208.064516,83.8064516 Z" id="Shape"></path>
        </g>
    </g>
</svg>
